addons/DVs_behavior_tree/icons/blackboard_check.svg

<svg height="32" viewBox="0 0 8.4666662 8.4666662" width="32" xmlns="http://www.w3.org/2000/svg"><g fill="#af9dd9"><path d="m.51406 5.613177h7.438547v.588342h-7.438547z"/><path d="m1.3161987.85576172v4.58938398h5.8342692v-4.58938398zm2.8918132.58187658c.3094751-.0068554.6156792.1108005.8428426.3379639.3304198.3304197.430486.8297077.2516642 1.2614217-.1412187.3409322-.4960908.4751422-.8433594.5643067v1.037146.2247924h-.4511352v-.2247924-1.3379029h.2263428c.2862754-.0000001.5426037-.1706316.6521565-.4351155.109553-.2644842.0484317-.5675514-.1539957-.7699789-.2024272-.2024272-.5049782-.2635486-.7694621-.1539957-.264484.1095529-.4356323.3658811-.4356323.6521565v.2268596h-.4511353v-.2268596c0-.4672838.282971-.88933.7146851-1.0681518.1349106-.055882.2763583-.084734.4170288-.08785z"/><g stroke-linecap="square" stroke-width=".751713"><path d="m4.4276856 6.0696092-1.1049923.0002093-1.877939 1.5413205 1.1049923-.0002093z"/><path d="m3.8745026 6.0696092 1.1049924.0002093 1.877939 1.5413205-1.1049923-.0002093z"/></g></g></svg>

<?xml version="1.0" encoding="UTF-8" standalone="no"?>
<!-- Created with Inkscape (http://www.inkscape.org/) -->

<svg
   width="32"
   height="32"
   viewBox="0 0 8.4666662 8.4666662"
   version="1.1"
   id="svg2766"
   inkscape:version="1.2.2 (732a01da63, 2022-12-09)"
   sodipodi:docname="blackboard_check.svg"
   inkscape:export-filename="..\blackboard_check.svg"
   inkscape:export-xdpi="96"
   inkscape:export-ydpi="96"
   xmlns:inkscape="http://www.inkscape.org/namespaces/inkscape"
   xmlns:sodipodi="http://sodipodi.sourceforge.net/DTD/sodipodi-0.dtd"
   xmlns="http://www.w3.org/2000/svg"
   xmlns:svg="http://www.w3.org/2000/svg">
  <sodipodi:namedview
     id="namedview2768"
     pagecolor="#ffffff"
     bordercolor="#000000"
     borderopacity="0.25"
     inkscape:showpageshadow="2"
     inkscape:pageopacity="0.0"
     inkscape:pagecheckerboard="0"
     inkscape:deskcolor="#d1d1d1"
     inkscape:document-units="mm"
     showgrid="false"
     inkscape:zoom="19.028871"
     inkscape:cx="12.63869"
     inkscape:cy="15.634138"
     inkscape:window-width="1680"
     inkscape:window-height="988"
     inkscape:window-x="-8"
     inkscape:window-y="-8"
     inkscape:window-maximized="1"
     inkscape:current-layer="layer1" />
  <defs
     id="defs2763" />
  <g
     inkscape:label="Layer 1"
     inkscape:groupmode="layer"
     id="layer1">
    <rect
       style="fill:#af9dd9;stroke:none;stroke-width:1.28416;stroke-linecap:square"
       id="rect2939"
       width="7.4385467"
       height="0.58834195"
       x="0.51406002"
       y="5.6131773" />
    <path
       id="rect3520"
       style="fill:#af9dd9;stroke:none;stroke-width:2.31816;stroke-linecap:square"
       d="M 1.3161987,0.85576172 V 5.4451457 H 7.1504679 V 0.85576172 Z M 4.2080119,1.4376383 C 4.517487,1.4307829 4.8236911,1.5484388 5.0508545,1.7756022 5.3812743,2.1060219 5.4813405,2.6053099 5.3025187,3.0370239 5.1613,3.3779561 4.8064279,3.5121661 4.4591593,3.6013306 V 4.6384766 4.863269 H 4.0080241 V 4.6384766 3.3005737 H 4.2343669 C 4.5206423,3.3005736 4.7769706,3.1299421 4.8865234,2.8654582 4.9960764,2.600974 4.9349551,2.2979068 4.7325277,2.0954793 4.5301005,1.8930521 4.2275495,1.8319307 3.9630656,1.9414836 3.6985816,2.0510365 3.5274333,2.3073647 3.5274333,2.5936401 V 2.8204997 H 3.076298 V 2.5936401 c 0,-0.4672838 0.282971,-0.88933 0.7146851,-1.0681518 0.1349106,-0.055882 0.2763583,-0.084734 0.4170288,-0.08785 z" />
    <path
       id="rect3524"
       style="fill:#af9dd9;stroke-width:0.751713;stroke-linecap:square"
       d="M 4.4276856,6.0696092 3.3226933,6.0698185 1.4447543,7.611139 2.5497466,7.6109297 Z"
       sodipodi:nodetypes="ccccc" />
    <path
       id="path3578"
       style="fill:#af9dd9;stroke-width:0.751713;stroke-linecap:square"
       d="M 3.8745026,6.0696092 4.979495,6.0698185 6.857434,7.611139 5.7524417,7.6109297 Z"
       sodipodi:nodetypes="ccccc" />
  </g>
</svg>
